src/components/getStarted/manage.svg

<?xml version="1.0" encoding="UTF-8"?>
<svg width="150px" height="150px" viewBox="0 0 150 150" version="1.1" xmlns="http://www.w3.org/2000/svg" xmlns:xlink="http://www.w3.org/1999/xlink">
    <!-- Generator: Sketch 50.2 (55047) - http://www.bohemiancoding.com/sketch -->
    <title>Group 6</title>
    <desc>Created with Sketch.</desc>
    <defs>
        <linearGradient x1="31.3061858%" y1="-14.6430865%" x2="86.6170805%" y2="108.866652%" id="linearGradient-1">
            <stop stop-color="#52E5FF" offset="0%"></stop>
            <stop stop-color="#5140FF" offset="100%"></stop>
        </linearGradient>
        <linearGradient x1="0%" y1="-70.1674107%" x2="123.792614%" y2="238.872768%" id="linearGradient-2">
            <stop stop-color="#52E5FF" offset="0%"></stop>
            <stop stop-color="#513FFF" offset="100%"></stop>
        </linearGradient>
        <linearGradient x1="158.46946%" y1="164.888393%" x2="0%" y2="0%" id="linearGradient-3">
            <stop stop-color="#5143FF" offset="0%"></stop>
            <stop stop-color="#52D8FF" offset="100%"></stop>
        </linearGradient>
    </defs>
    <g id="Page-1" stroke="none" stroke-width="1" fill="none" fill-rule="evenodd">
        <g id="Color-Variation" transform="translate(-756.000000, -2663.000000)">
            <g id="Get-Started-group" transform="translate(294.000000, 2557.000000)">
                <g id="Icons" transform="translate(0.000000, 93.000000)">
                    <g id="Group-6" transform="translate(464.000000, 15.000000)">
                        <circle id="Oval-2-Copy" stroke="url(#linearGradient-1)" stroke-width="4" cx="73" cy="73" r="73"></circle>
                        <g id="domains-icon" transform="translate(32.000000, 36.000000)" fill="url(#linearGradient-2)" stroke="url(#linearGradient-3)" stroke-width="0.5">
                            <path d="M32.6190476,18.5421183 L49.3809524,18.5421183 L49.3809524,2.63427264 L32.6190476,2.63427264 L32.6190476,18.5421183 Z M31.3095238,21.1763909 L39.8214286,21.1763909 L39.8214286,35 L42.4404762,35 L42.4404762,21.1763909 L50.6904762,21.1763909 C51.4133333,21.1763909 52,20.5863138 52,19.8592546 L52,1.31713632 C52,0.590077071 51.4133333,0 50.6904762,0 L31.3095238,0 C30.585619,0 30,0.590077071 30,1.31713632 L30,19.8592546 C30,20.5863138 30.585619,21.1763909 31.3095238,21.1763909 Z" id="Fill-1"></path>
                            <path d="M32.6190476,67.2727273 L49.3809524,67.2727273 L49.3809524,50.8032727 L32.6190476,50.8032727 L32.6190476,67.2727273 Z M50.6904762,48.076 L42.3095238,48.076 L42.3095238,43 L39.6904762,43 L39.6904762,48.076 L31.3095238,48.076 C30.585619,48.076 30,48.6869091 30,49.4396364 L30,68.6363636 C30,69.3890909 30.585619,70 31.3095238,70 L50.6904762,70 C51.4133333,70 52,69.3890909 52,68.6363636 L52,49.4396364 C52,48.6869091 51.4133333,48.076 50.6904762,48.076 Z" id="Fill-3"></path>
                            <path d="M60.9531773,67.2327914 L78.2909699,67.2327914 L78.2909699,50.5221723 L60.9531773,50.5221723 L60.9531773,67.2327914 Z M2.7090301,67.2327914 L20.0468227,67.2327914 L20.0468227,50.5221723 L2.7090301,50.5221723 L2.7090301,67.2327914 Z M79.6454849,47.7549637 L70.9765886,47.7549637 L70.9765886,39.3836043 C70.9765886,38.6198547 70.3697659,38 69.6220736,38 L10.8361204,38 C10.0873445,38 9.48160535,38.6198547 9.48160535,39.3836043 L9.48160535,47.7549637 L1.35451505,47.7549637 C0.60573913,47.7549637 0,48.3748184 0,49.138568 L0,68.6163957 C0,69.3801453 0.60573913,70 1.35451505,70 L21.4013378,70 C22.1490301,70 22.7558528,69.3801453 22.7558528,68.6163957 L22.7558528,49.138568 C22.7558528,48.3748184 22.1490301,47.7549637 21.4013378,47.7549637 L12.1906355,47.7549637 L12.1906355,40.7672086 L68.2675585,40.7672086 L68.2675585,47.7549637 L59.5986622,47.7549637 C58.8498863,47.7549637 58.2441472,48.3748184 58.2441472,49.138568 L58.2441472,68.6163957 C58.2441472,69.3801453 58.8498863,70 59.5986622,70 L79.6454849,70 C80.3931773,70 81,69.3801453 81,68.6163957 L81,49.138568 C81,48.3748184 80.3931773,47.7549637 79.6454849,47.7549637 Z" id="Fill-4"></path>
                        </g>
                    </g>
                </g>
            </g>
        </g>
    </g>
</svg>

<svg width="150" height="150" xmlns="http://www.w3.org/2000/svg"><defs><linearGradient x1="31.306%" y1="-14.643%" x2="86.617%" y2="108.867%" id="a"><stop stop-color="#52E5FF" offset="0%"/><stop stop-color="#5140FF" offset="100%"/></linearGradient><linearGradient x1="0%" y1="-70.167%" x2="123.793%" y2="238.873%" id="b"><stop stop-color="#52E5FF" offset="0%"/><stop stop-color="#513FFF" offset="100%"/></linearGradient><linearGradient x1="158.469%" y1="164.888%" x2="0%" y2="0%" id="c"><stop stop-color="#5143FF" offset="0%"/><stop stop-color="#52D8FF" offset="100%"/></linearGradient></defs><g transform="translate(2 2)" fill="none" fill-rule="evenodd"><circle stroke="url(#a)" stroke-width="4" cx="73" cy="73" r="73"/><g transform="translate(32 36)" fill="url(#b)" stroke="url(#c)" stroke-width=".5"><path d="M32.619 18.542h16.762V2.634H32.619v15.908zm-1.31 2.634h8.512V35h2.62V21.176h8.25c.722 0 1.309-.59 1.309-1.317V1.317C52 .59 51.413 0 50.69 0H31.31C30.586 0 30 .59 30 1.317V19.86c0 .727.586 1.317 1.31 1.317zM32.619 67.273h16.762v-16.47H32.619v16.47zM50.69 48.076h-8.38V43h-2.62v5.076h-8.38c-.724 0-1.31.61-1.31 1.364v19.196c0 .753.586 1.364 1.31 1.364h19.38c.723 0 1.31-.61 1.31-1.364V49.44c0-.753-.587-1.364-1.31-1.364z"/><path d="M60.953 67.233h17.338v-16.71H60.953v16.71zm-58.244 0h17.338v-16.71H2.709v16.71zm76.936-19.478h-8.668v-8.371c0-.764-.607-1.384-1.355-1.384H10.836c-.749 0-1.354.62-1.354 1.384v8.371H1.355c-.75 0-1.355.62-1.355 1.384v19.477C0 69.38.606 70 1.355 70H21.4c.748 0 1.355-.62 1.355-1.384V49.14c0-.764-.607-1.384-1.355-1.384h-9.21v-6.988h56.077v6.988h-8.67c-.748 0-1.354.62-1.354 1.384v19.477c0 .764.606 1.384 1.355 1.384h20.046c.748 0 1.355-.62 1.355-1.384V49.14c0-.764-.607-1.384-1.355-1.384z"/></g></g></svg>
